images/home/alternating-rules/glider-stroboscopific.svg

<svg height="86pt" viewBox="0 0 700 86" width="700pt" xmlns="http://www.w3.org/2000/svg"><g fill-rule="evenodd"><path d="m3.839844 80.878906h77.039062v-77.039062h-77.039062zm0 0" fill="#fff"/><path d="m31.824219 42.246094 10.421875-6.015625v12.035156zm0 0" fill="#800080"/><path d="m42.246094 48.265625 10.421875-6.019531v12.035156zm0 0" fill="#800080"/><path d="m52.667969 42.246094-10.421875-6.015625v12.035156zm0 0" fill="#800080"/><path d="m42.246094 48.265625-10.421875-6.019531v12.035156zm0 0" fill="#800080"/><path d="m31.824219 54.28125-10.421875-6.015625v12.03125zm0 0" fill="#800080"/><path d="m42.246094 60.296875-10.421875-6.015625v12.035156zm0 0" fill="#800080"/><path d="m80.640625 80.878906h77.039063v-77.039062h-77.039063zm0 0" fill="#800080"/><g fill="#fff"><path d="m108.636719 42.246094 10.421875-6.015625v12.035156zm0 0"/><path d="m119.058594 36.230469 10.421875-6.015625v12.03125zm0 0"/><path d="m87.796875 54.28125 10.421875-6.015625v12.03125zm0 0"/><path d="m108.636719 66.316406 10.421875-6.019531v12.035156zm0 0"/><path d="m129.480469 42.246094-10.421875-6.015625v12.035156zm0 0"/><path d="m119.058594 36.230469-10.421875-6.015625v12.03125zm0 0"/><path d="m139.902344 48.265625-10.421875-6.019531v12.035156zm0 0"/><path d="m129.480469 54.28125-10.421875-6.015625v12.03125zm0 0"/><path d="m157.441406 80.878906h77.039063v-77.039062h-77.039063zm0 0"/></g><path d="m195.875 48.265625 10.421875-6.019531v12.035156zm0 0" fill="#800080"/><path d="m195.875 36.230469 10.421875-6.015625v12.03125zm0 0" fill="#800080"/><path d="m195.875 36.230469-10.421875-6.015625v12.03125zm0 0" fill="#800080"/><path d="m234.238281 80.878906h77.042969v-77.039062h-77.042969zm0 0" fill="#800080"/><path d="m262.265625 42.246094 10.421875-6.015625v12.035156zm0 0" fill="#fff"/><path d="m262.265625 30.214844 10.421875-6.019532v12.035157zm0 0" fill="#fff"/><path d="m251.84375 36.230469 10.421875-6.015625v12.03125zm0 0" fill="#fff"/><path d="m293.53125 48.265625-10.421875-6.019531v12.035156zm0 0" fill="#fff"/><path d="m293.53125 36.230469-10.421875-6.015625v12.03125zm0 0" fill="#fff"/><path d="m283.109375 30.214844-10.421875-6.019532v12.035157zm0 0" fill="#fff"/><path d="m283.109375 54.28125-10.421875-6.015625v12.03125zm0 0" fill="#fff"/><path d="m311.039062 80.878906h77.039063v-77.039062h-77.039063zm0 0" fill="#fff"/><path d="m349.5 48.265625 10.421875-6.019531v12.035156zm0 0" fill="#800080"/><path d="m349.5 36.230469 10.421875-6.015625v12.03125zm0 0" fill="#800080"/><path d="m339.078125 30.214844 10.421875-6.019532v12.035157zm0 0" fill="#800080"/><path d="m359.921875 42.246094 10.421875-6.015625v12.035156zm0 0" fill="#800080"/><path d="m349.5 36.230469-10.421875-6.015625v12.03125zm0 0" fill="#800080"/><path d="m359.921875 30.214844-10.421875-6.019532v12.035157zm0 0" fill="#800080"/><path d="m387.839844 80.878906h77.039062v-77.039062h-77.039062zm0 0" fill="#800080"/><path d="m415.890625 42.246094 10.421875-6.015625v12.035156zm0 0" fill="#fff"/><path d="m415.890625 30.214844 10.421875-6.019532v12.035157zm0 0" fill="#fff"/><path d="m405.46875 36.230469 10.421875-6.015625v12.03125zm0 0" fill="#fff"/><path d="m426.3125 24.195312 10.421875-6.015624v12.035156zm0 0" fill="#fff"/><path d="m436.734375 30.214844-10.421875-6.019532v12.035157zm0 0" fill="#fff"/><path d="m426.3125 24.195312-10.421875-6.015624v12.035156zm0 0" fill="#fff"/><path d="m436.734375 54.28125-10.421875-6.015625v12.03125zm0 0" fill="#fff"/><path d="m457.578125 42.246094-10.421875-6.015625v12.035156zm0 0" fill="#fff"/><path d="m464.640625 80.878906h77.039063v-77.039062h-77.039063zm0 0" fill="#fff"/><path d="m503.125 24.195312 10.421875-6.015624v12.035156zm0 0" fill="#800080"/><path d="m503.125 36.230469-10.421875-6.015625v12.03125zm0 0" fill="#800080"/><path d="m503.125 24.195312-10.421875-6.015624v12.035156zm0 0" fill="#800080"/><path d="m541.441406 80.878906h77.039063v-77.039062h-77.039063zm0 0" fill="#800080"/><path d="m569.519531 42.246094 10.421875-6.015625v12.035156zm0 0" fill="#fff"/><path d="m559.097656 36.230469 10.421875-6.015625v12.03125zm0 0" fill="#fff"/><path d="m569.519531 18.179688 10.421875-6.019532v12.035156zm0 0" fill="#fff"/><path d="m559.097656 24.195312 10.421875-6.015624v12.035156zm0 0" fill="#fff"/><path d="m590.363281 30.214844-10.421875-6.019532v12.035157zm0 0" fill="#fff"/><path d="m600.78125 24.195312-10.417969-6.015624v12.035156zm0 0" fill="#fff"/><path d="m590.363281 18.179688-10.421875-6.019532v12.035156zm0 0" fill="#fff"/><path d="m618.238281 80.878906h77.042969v-77.039062h-77.042969zm0 0" fill="#fff"/><path d="m656.753906 24.195312 10.421875-6.015624v12.035156zm0 0" fill="#800080"/><path d="m646.332031 18.179688 10.421875-6.019532v12.035156zm0 0" fill="#800080"/><path d="m656.753906 36.230469-10.421875-6.015625v12.03125zm0 0" fill="#800080"/><path d="m656.753906 24.195312-10.421875-6.015624v12.035156zm0 0" fill="#800080"/><path d="m646.332031 30.214844-10.421875-6.019532v12.035157zm0 0" fill="#800080"/><path d="m667.175781 18.179688-10.421875-6.019532v12.035156zm0 0" fill="#800080"/></g><g fill="none" stroke="#000" stroke-linecap="square" stroke-miterlimit="3.25" transform="translate(-66 -5)"><path d="m69.839844 8.839844v76.8125h76.8125v-76.8125zm0 0"/><path d="m146.652344 8.839844v76.8125h76.816406v-76.8125zm0 0"/><path d="m223.46875 8.839844v76.8125h76.8125v-76.8125zm0 0"/><path d="m300.28125 8.839844v76.8125h76.8125v-76.8125zm0 0"/><path d="m377.09375 8.839844v76.8125h76.8125v-76.8125zm0 0"/><path d="m453.90625 8.839844v76.8125h76.8125v-76.8125zm0 0"/><path d="m530.71875 8.839844v76.8125h76.8125v-76.8125zm0 0"/><path d="m607.53125 8.839844v76.8125h76.816406v-76.8125zm0 0"/><path d="m684.347656 8.839844v76.8125h76.8125v-76.8125zm0 0"/></g></svg>

<?xml version="1.0" encoding="UTF-8"?>
<svg xmlns="http://www.w3.org/2000/svg" xmlns:xlink="http://www.w3.org/1999/xlink" width="700pt" height="86pt" viewBox="0 0 700 86" version="1.1">
<g id="surface41">
<path style=" stroke:none;fill-rule:evenodd;fill:rgb(100%,100%,100%);fill-opacity:1;" d="M 3.839844 80.878906 L 80.878906 80.878906 L 80.878906 3.839844 L 3.839844 3.839844 Z M 3.839844 80.878906 "/>
<path style=" stroke:none;fill-rule:evenodd;fill:rgb(50.000763%,0%,50.000763%);fill-opacity:1;" d="M 31.824219 42.246094 L 42.246094 36.230469 L 42.246094 48.265625 Z M 31.824219 42.246094 "/>
<path style=" stroke:none;fill-rule:evenodd;fill:rgb(50.000763%,0%,50.000763%);fill-opacity:1;" d="M 42.246094 48.265625 L 52.667969 42.246094 L 52.667969 54.28125 Z M 42.246094 48.265625 "/>
<path style=" stroke:none;fill-rule:evenodd;fill:rgb(50.000763%,0%,50.000763%);fill-opacity:1;" d="M 52.667969 42.246094 L 42.246094 36.230469 L 42.246094 48.265625 Z M 52.667969 42.246094 "/>
<path style=" stroke:none;fill-rule:evenodd;fill:rgb(50.000763%,0%,50.000763%);fill-opacity:1;" d="M 42.246094 48.265625 L 31.824219 42.246094 L 31.824219 54.28125 Z M 42.246094 48.265625 "/>
<path style=" stroke:none;fill-rule:evenodd;fill:rgb(50.000763%,0%,50.000763%);fill-opacity:1;" d="M 31.824219 54.28125 L 21.402344 48.265625 L 21.402344 60.296875 Z M 31.824219 54.28125 "/>
<path style=" stroke:none;fill-rule:evenodd;fill:rgb(50.000763%,0%,50.000763%);fill-opacity:1;" d="M 42.246094 60.296875 L 31.824219 54.28125 L 31.824219 66.316406 Z M 42.246094 60.296875 "/>
<path style=" stroke:none;fill-rule:evenodd;fill:rgb(50.000763%,0%,50.000763%);fill-opacity:1;" d="M 80.640625 80.878906 L 157.679688 80.878906 L 157.679688 3.839844 L 80.640625 3.839844 Z M 80.640625 80.878906 "/>
<path style=" stroke:none;fill-rule:evenodd;fill:rgb(100%,100%,100%);fill-opacity:1;" d="M 108.636719 42.246094 L 119.058594 36.230469 L 119.058594 48.265625 Z M 108.636719 42.246094 "/>
<path style=" stroke:none;fill-rule:evenodd;fill:rgb(100%,100%,100%);fill-opacity:1;" d="M 119.058594 36.230469 L 129.480469 30.214844 L 129.480469 42.246094 Z M 119.058594 36.230469 "/>
<path style=" stroke:none;fill-rule:evenodd;fill:rgb(100%,100%,100%);fill-opacity:1;" d="M 87.796875 54.28125 L 98.21875 48.265625 L 98.21875 60.296875 Z M 87.796875 54.28125 "/>
<path style=" stroke:none;fill-rule:evenodd;fill:rgb(100%,100%,100%);fill-opacity:1;" d="M 108.636719 66.316406 L 119.058594 60.296875 L 119.058594 72.332031 Z M 108.636719 66.316406 "/>
<path style=" stroke:none;fill-rule:evenodd;fill:rgb(100%,100%,100%);fill-opacity:1;" d="M 129.480469 42.246094 L 119.058594 36.230469 L 119.058594 48.265625 Z M 129.480469 42.246094 "/>
<path style=" stroke:none;fill-rule:evenodd;fill:rgb(100%,100%,100%);fill-opacity:1;" d="M 119.058594 36.230469 L 108.636719 30.214844 L 108.636719 42.246094 Z M 119.058594 36.230469 "/>
<path style=" stroke:none;fill-rule:evenodd;fill:rgb(100%,100%,100%);fill-opacity:1;" d="M 139.902344 48.265625 L 129.480469 42.246094 L 129.480469 54.28125 Z M 139.902344 48.265625 "/>
<path style=" stroke:none;fill-rule:evenodd;fill:rgb(100%,100%,100%);fill-opacity:1;" d="M 129.480469 54.28125 L 119.058594 48.265625 L 119.058594 60.296875 Z M 129.480469 54.28125 "/>
<path style=" stroke:none;fill-rule:evenodd;fill:rgb(100%,100%,100%);fill-opacity:1;" d="M 157.441406 80.878906 L 234.480469 80.878906 L 234.480469 3.839844 L 157.441406 3.839844 Z M 157.441406 80.878906 "/>
<path style=" stroke:none;fill-rule:evenodd;fill:rgb(50.000763%,0%,50.000763%);fill-opacity:1;" d="M 195.875 48.265625 L 206.296875 42.246094 L 206.296875 54.28125 Z M 195.875 48.265625 "/>
<path style=" stroke:none;fill-rule:evenodd;fill:rgb(50.000763%,0%,50.000763%);fill-opacity:1;" d="M 195.875 36.230469 L 206.296875 30.214844 L 206.296875 42.246094 Z M 195.875 36.230469 "/>
<path style=" stroke:none;fill-rule:evenodd;fill:rgb(50.000763%,0%,50.000763%);fill-opacity:1;" d="M 195.875 36.230469 L 185.453125 30.214844 L 185.453125 42.246094 Z M 195.875 36.230469 "/>
<path style=" stroke:none;fill-rule:evenodd;fill:rgb(50.000763%,0%,50.000763%);fill-opacity:1;" d="M 234.238281 80.878906 L 311.28125 80.878906 L 311.28125 3.839844 L 234.238281 3.839844 Z M 234.238281 80.878906 "/>
<path style=" stroke:none;fill-rule:evenodd;fill:rgb(100%,100%,100%);fill-opacity:1;" d="M 262.265625 42.246094 L 272.6875 36.230469 L 272.6875 48.265625 Z M 262.265625 42.246094 "/>
<path style=" stroke:none;fill-rule:evenodd;fill:rgb(100%,100%,100%);fill-opacity:1;" d="M 262.265625 30.214844 L 272.6875 24.195312 L 272.6875 36.230469 Z M 262.265625 30.214844 "/>
<path style=" stroke:none;fill-rule:evenodd;fill:rgb(100%,100%,100%);fill-opacity:1;" d="M 251.84375 36.230469 L 262.265625 30.214844 L 262.265625 42.246094 Z M 251.84375 36.230469 "/>
<path style=" stroke:none;fill-rule:evenodd;fill:rgb(100%,100%,100%);fill-opacity:1;" d="M 293.53125 48.265625 L 283.109375 42.246094 L 283.109375 54.28125 Z M 293.53125 48.265625 "/>
<path style=" stroke:none;fill-rule:evenodd;fill:rgb(100%,100%,100%);fill-opacity:1;" d="M 293.53125 36.230469 L 283.109375 30.214844 L 283.109375 42.246094 Z M 293.53125 36.230469 "/>
<path style=" stroke:none;fill-rule:evenodd;fill:rgb(100%,100%,100%);fill-opacity:1;" d="M 283.109375 30.214844 L 272.6875 24.195312 L 272.6875 36.230469 Z M 283.109375 30.214844 "/>
<path style=" stroke:none;fill-rule:evenodd;fill:rgb(100%,100%,100%);fill-opacity:1;" d="M 283.109375 54.28125 L 272.6875 48.265625 L 272.6875 60.296875 Z M 283.109375 54.28125 "/>
<path style=" stroke:none;fill-rule:evenodd;fill:rgb(100%,100%,100%);fill-opacity:1;" d="M 311.039062 80.878906 L 388.078125 80.878906 L 388.078125 3.839844 L 311.039062 3.839844 Z M 311.039062 80.878906 "/>
<path style=" stroke:none;fill-rule:evenodd;fill:rgb(50.000763%,0%,50.000763%);fill-opacity:1;" d="M 349.5 48.265625 L 359.921875 42.246094 L 359.921875 54.28125 Z M 349.5 48.265625 "/>
<path style=" stroke:none;fill-rule:evenodd;fill:rgb(50.000763%,0%,50.000763%);fill-opacity:1;" d="M 349.5 36.230469 L 359.921875 30.214844 L 359.921875 42.246094 Z M 349.5 36.230469 "/>
<path style=" stroke:none;fill-rule:evenodd;fill:rgb(50.000763%,0%,50.000763%);fill-opacity:1;" d="M 339.078125 30.214844 L 349.5 24.195312 L 349.5 36.230469 Z M 339.078125 30.214844 "/>
<path style=" stroke:none;fill-rule:evenodd;fill:rgb(50.000763%,0%,50.000763%);fill-opacity:1;" d="M 359.921875 42.246094 L 370.34375 36.230469 L 370.34375 48.265625 Z M 359.921875 42.246094 "/>
<path style=" stroke:none;fill-rule:evenodd;fill:rgb(50.000763%,0%,50.000763%);fill-opacity:1;" d="M 349.5 36.230469 L 339.078125 30.214844 L 339.078125 42.246094 Z M 349.5 36.230469 "/>
<path style=" stroke:none;fill-rule:evenodd;fill:rgb(50.000763%,0%,50.000763%);fill-opacity:1;" d="M 359.921875 30.214844 L 349.5 24.195312 L 349.5 36.230469 Z M 359.921875 30.214844 "/>
<path style=" stroke:none;fill-rule:evenodd;fill:rgb(50.000763%,0%,50.000763%);fill-opacity:1;" d="M 387.839844 80.878906 L 464.878906 80.878906 L 464.878906 3.839844 L 387.839844 3.839844 Z M 387.839844 80.878906 "/>
<path style=" stroke:none;fill-rule:evenodd;fill:rgb(100%,100%,100%);fill-opacity:1;" d="M 415.890625 42.246094 L 426.3125 36.230469 L 426.3125 48.265625 Z M 415.890625 42.246094 "/>
<path style=" stroke:none;fill-rule:evenodd;fill:rgb(100%,100%,100%);fill-opacity:1;" d="M 415.890625 30.214844 L 426.3125 24.195312 L 426.3125 36.230469 Z M 415.890625 30.214844 "/>
<path style=" stroke:none;fill-rule:evenodd;fill:rgb(100%,100%,100%);fill-opacity:1;" d="M 405.46875 36.230469 L 415.890625 30.214844 L 415.890625 42.246094 Z M 405.46875 36.230469 "/>
<path style=" stroke:none;fill-rule:evenodd;fill:rgb(100%,100%,100%);fill-opacity:1;" d="M 426.3125 24.195312 L 436.734375 18.179688 L 436.734375 30.214844 Z M 426.3125 24.195312 "/>
<path style=" stroke:none;fill-rule:evenodd;fill:rgb(100%,100%,100%);fill-opacity:1;" d="M 436.734375 30.214844 L 426.3125 24.195312 L 426.3125 36.230469 Z M 436.734375 30.214844 "/>
<path style=" stroke:none;fill-rule:evenodd;fill:rgb(100%,100%,100%);fill-opacity:1;" d="M 426.3125 24.195312 L 415.890625 18.179688 L 415.890625 30.214844 Z M 426.3125 24.195312 "/>
<path style=" stroke:none;fill-rule:evenodd;fill:rgb(100%,100%,100%);fill-opacity:1;" d="M 436.734375 54.28125 L 426.3125 48.265625 L 426.3125 60.296875 Z M 436.734375 54.28125 "/>
<path style=" stroke:none;fill-rule:evenodd;fill:rgb(100%,100%,100%);fill-opacity:1;" d="M 457.578125 42.246094 L 447.15625 36.230469 L 447.15625 48.265625 Z M 457.578125 42.246094 "/>
<path style=" stroke:none;fill-rule:evenodd;fill:rgb(100%,100%,100%);fill-opacity:1;" d="M 464.640625 80.878906 L 541.679688 80.878906 L 541.679688 3.839844 L 464.640625 3.839844 Z M 464.640625 80.878906 "/>
<path style=" stroke:none;fill-rule:evenodd;fill:rgb(50.000763%,0%,50.000763%);fill-opacity:1;" d="M 503.125 24.195312 L 513.546875 18.179688 L 513.546875 30.214844 Z M 503.125 24.195312 "/>
<path style=" stroke:none;fill-rule:evenodd;fill:rgb(50.000763%,0%,50.000763%);fill-opacity:1;" d="M 503.125 36.230469 L 492.703125 30.214844 L 492.703125 42.246094 Z M 503.125 36.230469 "/>
<path style=" stroke:none;fill-rule:evenodd;fill:rgb(50.000763%,0%,50.000763%);fill-opacity:1;" d="M 503.125 24.195312 L 492.703125 18.179688 L 492.703125 30.214844 Z M 503.125 24.195312 "/>
<path style=" stroke:none;fill-rule:evenodd;fill:rgb(50.000763%,0%,50.000763%);fill-opacity:1;" d="M 541.441406 80.878906 L 618.480469 80.878906 L 618.480469 3.839844 L 541.441406 3.839844 Z M 541.441406 80.878906 "/>
<path style=" stroke:none;fill-rule:evenodd;fill:rgb(100%,100%,100%);fill-opacity:1;" d="M 569.519531 42.246094 L 579.941406 36.230469 L 579.941406 48.265625 Z M 569.519531 42.246094 "/>
<path style=" stroke:none;fill-rule:evenodd;fill:rgb(100%,100%,100%);fill-opacity:1;" d="M 559.097656 36.230469 L 569.519531 30.214844 L 569.519531 42.246094 Z M 559.097656 36.230469 "/>
<path style=" stroke:none;fill-rule:evenodd;fill:rgb(100%,100%,100%);fill-opacity:1;" d="M 569.519531 18.179688 L 579.941406 12.160156 L 579.941406 24.195312 Z M 569.519531 18.179688 "/>
<path style=" stroke:none;fill-rule:evenodd;fill:rgb(100%,100%,100%);fill-opacity:1;" d="M 559.097656 24.195312 L 569.519531 18.179688 L 569.519531 30.214844 Z M 559.097656 24.195312 "/>
<path style=" stroke:none;fill-rule:evenodd;fill:rgb(100%,100%,100%);fill-opacity:1;" d="M 590.363281 30.214844 L 579.941406 24.195312 L 579.941406 36.230469 Z M 590.363281 30.214844 "/>
<path style=" stroke:none;fill-rule:evenodd;fill:rgb(100%,100%,100%);fill-opacity:1;" d="M 600.78125 24.195312 L 590.363281 18.179688 L 590.363281 30.214844 Z M 600.78125 24.195312 "/>
<path style=" stroke:none;fill-rule:evenodd;fill:rgb(100%,100%,100%);fill-opacity:1;" d="M 590.363281 18.179688 L 579.941406 12.160156 L 579.941406 24.195312 Z M 590.363281 18.179688 "/>
<path style=" stroke:none;fill-rule:evenodd;fill:rgb(100%,100%,100%);fill-opacity:1;" d="M 618.238281 80.878906 L 695.28125 80.878906 L 695.28125 3.839844 L 618.238281 3.839844 Z M 618.238281 80.878906 "/>
<path style=" stroke:none;fill-rule:evenodd;fill:rgb(50.000763%,0%,50.000763%);fill-opacity:1;" d="M 656.753906 24.195312 L 667.175781 18.179688 L 667.175781 30.214844 Z M 656.753906 24.195312 "/>
<path style=" stroke:none;fill-rule:evenodd;fill:rgb(50.000763%,0%,50.000763%);fill-opacity:1;" d="M 646.332031 18.179688 L 656.753906 12.160156 L 656.753906 24.195312 Z M 646.332031 18.179688 "/>
<path style=" stroke:none;fill-rule:evenodd;fill:rgb(50.000763%,0%,50.000763%);fill-opacity:1;" d="M 656.753906 36.230469 L 646.332031 30.214844 L 646.332031 42.246094 Z M 656.753906 36.230469 "/>
<path style=" stroke:none;fill-rule:evenodd;fill:rgb(50.000763%,0%,50.000763%);fill-opacity:1;" d="M 656.753906 24.195312 L 646.332031 18.179688 L 646.332031 30.214844 Z M 656.753906 24.195312 "/>
<path style=" stroke:none;fill-rule:evenodd;fill:rgb(50.000763%,0%,50.000763%);fill-opacity:1;" d="M 646.332031 30.214844 L 635.910156 24.195312 L 635.910156 36.230469 Z M 646.332031 30.214844 "/>
<path style=" stroke:none;fill-rule:evenodd;fill:rgb(50.000763%,0%,50.000763%);fill-opacity:1;" d="M 667.175781 18.179688 L 656.753906 12.160156 L 656.753906 24.195312 Z M 667.175781 18.179688 "/>
<path style="fill:none;stroke-width:1;stroke-linecap:square;stroke-linejoin:miter;stroke:rgb(0%,0%,0%);stroke-opacity:1;stroke-miterlimit:3.25;" d="M 69.839844 8.839844 L 69.839844 85.652344 L 146.652344 85.652344 L 146.652344 8.839844 Z M 69.839844 8.839844 " transform="matrix(1,0,0,1,-66,-5)"/>
<path style="fill:none;stroke-width:1;stroke-linecap:square;stroke-linejoin:miter;stroke:rgb(0%,0%,0%);stroke-opacity:1;stroke-miterlimit:3.25;" d="M 146.652344 8.839844 L 146.652344 85.652344 L 223.46875 85.652344 L 223.46875 8.839844 Z M 146.652344 8.839844 " transform="matrix(1,0,0,1,-66,-5)"/>
<path style="fill:none;stroke-width:1;stroke-linecap:square;stroke-linejoin:miter;stroke:rgb(0%,0%,0%);stroke-opacity:1;stroke-miterlimit:3.25;" d="M 223.46875 8.839844 L 223.46875 85.652344 L 300.28125 85.652344 L 300.28125 8.839844 Z M 223.46875 8.839844 " transform="matrix(1,0,0,1,-66,-5)"/>
<path style="fill:none;stroke-width:1;stroke-linecap:square;stroke-linejoin:miter;stroke:rgb(0%,0%,0%);stroke-opacity:1;stroke-miterlimit:3.25;" d="M 300.28125 8.839844 L 300.28125 85.652344 L 377.09375 85.652344 L 377.09375 8.839844 Z M 300.28125 8.839844 " transform="matrix(1,0,0,1,-66,-5)"/>
<path style="fill:none;stroke-width:1;stroke-linecap:square;stroke-linejoin:miter;stroke:rgb(0%,0%,0%);stroke-opacity:1;stroke-miterlimit:3.25;" d="M 377.09375 8.839844 L 377.09375 85.652344 L 453.90625 85.652344 L 453.90625 8.839844 Z M 377.09375 8.839844 " transform="matrix(1,0,0,1,-66,-5)"/>
<path style="fill:none;stroke-width:1;stroke-linecap:square;stroke-linejoin:miter;stroke:rgb(0%,0%,0%);stroke-opacity:1;stroke-miterlimit:3.25;" d="M 453.90625 8.839844 L 453.90625 85.652344 L 530.71875 85.652344 L 530.71875 8.839844 Z M 453.90625 8.839844 " transform="matrix(1,0,0,1,-66,-5)"/>
<path style="fill:none;stroke-width:1;stroke-linecap:square;stroke-linejoin:miter;stroke:rgb(0%,0%,0%);stroke-opacity:1;stroke-miterlimit:3.25;" d="M 530.71875 8.839844 L 530.71875 85.652344 L 607.53125 85.652344 L 607.53125 8.839844 Z M 530.71875 8.839844 " transform="matrix(1,0,0,1,-66,-5)"/>
<path style="fill:none;stroke-width:1;stroke-linecap:square;stroke-linejoin:miter;stroke:rgb(0%,0%,0%);stroke-opacity:1;stroke-miterlimit:3.25;" d="M 607.53125 8.839844 L 607.53125 85.652344 L 684.347656 85.652344 L 684.347656 8.839844 Z M 607.53125 8.839844 " transform="matrix(1,0,0,1,-66,-5)"/>
<path style="fill:none;stroke-width:1;stroke-linecap:square;stroke-linejoin:miter;stroke:rgb(0%,0%,0%);stroke-opacity:1;stroke-miterlimit:3.25;" d="M 684.347656 8.839844 L 684.347656 85.652344 L 761.160156 85.652344 L 761.160156 8.839844 Z M 684.347656 8.839844 " transform="matrix(1,0,0,1,-66,-5)"/>
</g>
</svg>
